assets/icons/qvision/vibration.svg

<svg xmlns="http://www.w3.org/2000/svg" height="24" viewBox="0 0 24 24" width="24"><path d="M0 0h24v24H0z" fill="none"/><path d="M0 15h2V9H0v6zm3 2h2V7H3v10zm19-8v6h2V9h-2zm-3 8h2V7h-2v10zM16.5 3h-9C6.67 3 6 3.67 6 4.5v15c0 .83.67 1.5 1.5 1.5h9c.83 0 1.5-.67 1.5-1.5v-15c0-.83-.67-1.5-1.5-1.5zM16 19H8V5h8v14z"/></svg>

<svg width="24" height="24" viewBox="0 0 24 24" fill="none" xmlns="http://www.w3.org/2000/svg">
<g clip-path="url(#clip0_147_6062)">
<path d="M0 15H2V9H0V15ZM3 17H5V7H3V17ZM22 9V15H24V9H22ZM19 17H21V7H19V17ZM16.5 3H7.5C6.67 3 6 3.67 6 4.5V19.5C6 20.33 6.67 21 7.5 21H16.5C17.33 21 18 20.33 18 19.5V4.5C18 3.67 17.33 3 16.5 3ZM16 19H8V5H16V19Z" fill="#323232"/>
</g>
<defs>
<clipPath id="clip0_147_6062">
<rect width="24" height="24" fill="white"/>
</clipPath>
</defs>
</svg>
